!!!COA:	Josquin des Prez
!!!CDT:	~1450-1521/08/27
!!!OTL@@FRE: Qui belles amours
!!!AGN:	Chanson
!!!SCT:	NJE 28.29
!!!SCA:	New Josquin Edition 28.29
!!!voices:	4
**kern	**kern	**kern	**kern
*staff4	*staff3	*staff2	*staff1
*Ivox	*Ivox	*Ivox	*Ivox
*I"Bassus	*I"Tenor	*I"Altus	*I"Superius
*I'B	*I'T	*I'A	*I'S
*clefF4	*clefGv2	*clefGv2	*clefG2
*k[b-]	*k[b-]	*k[b-]	*k[b-]
*M2/1	*M2/1	*M2/1	*M2/1
*met(C|)	*met(C|)	*met(C|)	*met(C|)
=1-	=1-	=1-	=1-
1G	0r	0r	0r
[1B-	.	.	.
=2	=2	=2	=2
2B-\]	0r	0r	0r
2B-\	.	.	.
2B-\	.	.	.
2B-\	.	.	.
=3	=3	=3	=3
2A\	0r	1r	0r
1B-	.	.	.
.	.	1d	.
4A\	.	.	.
4G\	.	.	.
=4	=4	=4	=4
1.F	0r	2.f\	0r
.	.	4f\	.
.	.	2f\	.
4E\	.	2f\	.
4D\	.	.	.
=5	=5	=5	=5
2C/	0r	2e\	0r
2BB-/	.	1f	.
[1F	.	.	.
.	.	4e\	.
.	.	4d\	.
=6	=6	=6	=6
2F\]	0r	0c	1r
4E\	.	.	.
4D\	.	.	.
1C	.	.	1g
=7	=7	=7	=7
2BB-/	0r	1r	2.b-\
1B-	.	.	.
.	.	.	4b-\
.	.	1d	2b-\
4A\	.	.	2b-\
4G\	.	.	.
=8	=8	=8	=8
2F\	1r	4f\	2a/
.	.	4e\	.
1G	.	4d\	1b-
.	.	4c\	.
.	1G	2B-\	.
4F\	.	2c\	4a/
4E\	.	.	4g/
=9	=9	=9	=9
2D\	2.B-\	1d	1f
1BB-	.	.	.
.	4B-\	.	.
.	2B-\	2r	2r
4AA/	2B-\	2d\	2g/
4GG/	.	.	.
=10	=10	=10	=10
1D	2A/	1f	2a/
.	1B-	.	2f/
2r	.	2r	1b-
2GG/	4A/	2d\	.
.	4G/	.	.
=11	=11	=11	=11
1D	1F	1f	2r
.	.	.	2a/
1r	2r	2r	1b-
.	2G/	2d\	.
=12	=12	=12	=12
1D	2A/	2.f\	1r
.	2F/	.	.
.	.	4e\	.
1G	1B-	4d\	2r
.	.	4c\	.
.	.	2d\	2g/
=13	=13	=13	=13
1r	2r	4B-\	1b-
.	.	4c\	.
.	2G/	4d\	.
.	.	4e\	.
1D	2A/	1f	1r
.	2F/	.	.
=14	=14	=14	=14
1G	1B-	2r	2r
.	.	2d\	2g/
2D\	2r	2f\	2a/
2G\	2G/	2d\	2b-\
=15	=15	=15	=15
2F\	2A/	2f\	2a/
2G\	2B-\	2d\	2g/
2F\	2A/	2f\	[1cc
2G\	2G/	2e\	.
=16	=16	=16	=16
2r	1A	4f\	2cc\]
.	.	4e\	.
2F\	.	4d\	4b-\
.	.	4c\	4a/
2G\	1G	1B-	2b-\
2E\	.	.	2g/
=17	=17	=17	=17
2F\	2r	2r	2a/
2G\	2G/	2d\	2b-\
2F\	2A/	2f\	2a/
2G\	2B-\	2e\	2g/
=18	=18	=18	=18
2D\	2A/	2d\	2f/
2E-\	2G/	2c\	1g
1D	1A	[1d	.
.	.	.	2f#i/
=19	=19	=19	=19
2r	[0G	2d\]	0g
2GG/	.	4c\	.
.	.	4B-\	.
2C/	.	2e-\	.
[2BB-/	.	[2d\	.
=20	=20	=20	=20
2BB-/]	0G]	2d\]	1r
4AA/	.	4c\	.
4GG/	.	4B-\	.
2C/	.	2e-i\	1g
2BB-/	.	[2d\	.
=21	=21	=21	=21
1GG	0r	4d\]	2.b-\
.	.	4c\	.
.	.	4B-\	.
.	.	4A/	4b-\
1G	.	2G/	2b-\
.	.	2B-\	2b-\
=22	=22	=22	=22
2F\	1r	2c\	2a/
2D\	.	1d	2f/
2.E-\	1G	.	2.g/
.	.	2c\	.
4D\	.	.	4f/
=23	=23	=23	=23
1.BB-	2.B-\	2.f\	1d
.	4B-\	4e\	.
.	2B-\	4d\	2r
.	.	4c\	.
4AA/	2B-\	[2d\	2d/
4GG/	.	.	.
=24	=24	=24	=24
1D	4A/	1d]	2.f/
.	4G/	.	.
.	4F/	.	.
.	4E/	.	4g/
1r	1F	2.c\	4a/
.	.	.	4b-\
.	.	.	2cc\
.	.	4B-\	.
=25	=25	=25	=25
0r	0r	2G/	2b-\
.	.	1g	2g/
.	.	.	1a
.	.	2f\	.
=26	=26	=26	=26
0r	2r	4g\	1g
.	.	4f\	.
.	2G/	4e\	.
.	.	4d\	.
.	2A/	4c\	1r
.	.	4B-\	.
.	2c\	[2A/	.
=27	=27	=27	=27
1r	2B-\	4A/]	0r
.	.	4G/	.
.	2G/	1g	.
1D	1A	.	.
.	.	2f#i\	.
=28	=28	=28	=28
2.G\	0G	1g	1r
4F\	.	.	.
4G\	.	1G	1d
4A\	.	.	.
[2B-\	.	.	.
=29	=29	=29	=29
4B-\]	0r	1B-	2.g/
4A\	.	.	.
4G\	.	.	.
4F\	.	.	4g/
1E	.	1c	2g/
.	.	.	2g/
=30	=30	=30	=30
1.D	1r	2d\	2.f/
.	.	1f	.
.	.	.	4e/
.	1D	.	1d
4C/	.	4e-i\	.
4BB-/	.	4d\	.
=31	=31	=31	=31
2C/	2.G/	2e-\	0r
2BB-/	.	1d	.
.	4G/	.	.
4GG/	2G/	.	.
4AA/	.	.	.
4BB-/	2G/	4c\	.
4C/	.	4B-\	.
=32	=32	=32	=32
4D\	2.F/	2.A/	1r
4C/	.	.	.
4D\	.	.	.
4E\	4E/	4G/	.
4F\	1D	1A	1a
4G\	.	.	.
4A\	.	.	.
4F\	.	.	.
=33	=33	=33	=33
1G	0r	4G/	1.b-
.	.	4A/	.
.	.	4B-\	.
.	.	4c\	.
1r	.	4d\	.
.	.	4e\	.
.	.	2f\	2a/
=34	=34	=34	=34
0r	1r	2e\	2g/
.	.	1d	2f/
.	1A	.	1e
.	.	2c#i\	.
=35	=35	=35	=35
0r	1.B-	2d\	0d
.	.	4B-\	.
.	.	4c\	.
.	.	4d\	.
.	.	4e\	.
.	2A/	2f\	.
=36	=36	=36	=36
1r	2G/	2e\	0r
.	2F/	1d	.
1G	1E	.	.
.	.	2c#i\	.
=37	=37	=37	=37
2.B-\	[0D	2d\	0r
.	.	1.d	.
4B-\	.	.	.
2B-\	.	.	.
2B-\	.	.	.
=38	=38	=38	=38
2A\	0D]	1r	0r
1B-	.	.	.
.	.	1d	.
4A\	.	.	.
4G\	.	.	.
=39	=39	=39	=39
1.F	0r	2.f\	0r
.	.	4f\	.
.	.	2f\	.
4E\	.	2f\	.
4D\	.	.	.
=40	=40	=40	=40
2C/	0r	2e\	0r
2BB-/	.	1f	.
[1F	.	.	.
.	.	4e\	.
.	.	4d\	.
=41	=41	=41	=41
2F\]	0r	0c	1r
4E\	.	.	.
4D\	.	.	.
1C	.	.	1g
=42	=42	=42	=42
2BB-/	0r	1r	2.b-\
1B-	.	.	.
.	.	.	4b-\
.	.	1d	2b-\
4A\	.	.	2b-\
4G\	.	.	.
=43	=43	=43	=43
2F\	1r	4f\	2a/
.	.	4e\	.
1G	.	4d\	1b-
.	.	4c\	.
.	1G	2B-\	.
4F\	.	2c\	4a/
4E\	.	.	4g/
=44	=44	=44	=44
2D\	2.B-\	1d	1f
1BB-	.	.	.
.	4B-\	.	.
.	2B-\	2r	2r
4AA/	2B-\	2d\	2g/
4GG/	.	.	.
=45	=45	=45	=45
1D	2A/	1f	2a/
.	1B-	.	2f/
2r	.	2r	1b-
2GG/	4A/	2d\	.
.	4G/	.	.
=46	=46	=46	=46
1D	1F	1f	2r
.	.	.	2a/
1r	2r	2r	1b-
.	2G/	2d\	.
=47	=47	=47	=47
1D	2A/	2.f\	1r
.	2F/	.	.
.	.	4e\	.
1G	1B-	4d\	2r
.	.	4c\	.
.	.	2d\	2g/
=48	=48	=48	=48
1r	2r	4B-\	1b-
.	.	4c\	.
.	2G/	4d\	.
.	.	4e\	.
1D	2A/	1f	1r
.	2F/	.	.
=49	=49	=49	=49
1G	1B-	2r	2r
.	.	2d\	2g/
2D\	2r	2f\	2a/
2G\	2G/	2d\	2b-\
=50	=50	=50	=50
2F\	2A/	2f\	2a/
2G\	2B-\	2d\	2g/
2F\	2A/	2f\	[1cc
2G\	2G/	2e\	.
=51	=51	=51	=51
2r	1A	4f\	2cc\]
.	.	4e\	.
2F\	.	4d\	4b-\
.	.	4c\	4a/
2G\	1G	1B-	2b-\
2E\	.	.	2g/
=52	=52	=52	=52
2F\	2r	2r	2a/
2G\	2G/	2d\	2b-\
2F\	2A/	2f\	2a/
2G\	2B-\	2e\	2g/
=53	=53	=53	=53
2D\	2A/	2d\	2f/
2E-\	2G/	2c\	1g
1D	1A	[1d	.
.	.	.	2f#i/
=54	=54	=54	=54
2r	[0Gl	2d\]	[0gl
2GG/	.	4c\	.
.	.	4B-\	.
2C/	.	2e-\	.
[2BB-/	.	[2d\	.
=55	=55	=55	=55
2BB-/]	0G_	2d\]	0g_
4AA/	.	4c\	.
4GG/	.	4B-\	.
2C/	.	2e-i\	.
2BB-/	.	2d\	.
=56	=56	=56	=56
0GGl	0G]	0dl	0g]
==	==	==	==
*-	*-	*-	*-
!!!RDF**kern: l=long note in original notation
!!!RDF**kern: i=editorial accidental
!!!ENC:	Will Watson 18/08/2011
!!!END:	2011/08/18/
!!!EED:	Jesse Rodin
!!!EEV:	2011/09/21/
!!attribution-level@Jos: 3 (tricky)
!!!ONB:	Translated from MusicXML and edited on 2011/09/21/ by Craig Sapp
!!muse2ps: C^@{COA}?\n@{SCT}^i2I150v90,90,90,150Q16
